docs/asset/img/github.svg

<!DOCTYPE svg PUBLIC "-//W3C//DTD SVG 1.1//EN" "http://www.w3.org/Graphics/SVG/1.1/DTD/svg11.dtd">
<!-- Uploaded to: SVG Repo, www.svgrepo.com, Transformed by: SVG Repo Mixer Tools -->
<svg width="800px" height="800px" viewBox="0 -0.5 48 48" version="1.1" xmlns="http://www.w3.org/2000/svg" xmlns:xlink="http://www.w3.org/1999/xlink" fill="#000000">
<g id="SVGRepo_bgCarrier" stroke-width="0"/>
<g id="SVGRepo_tracerCarrier" stroke-linecap="round" stroke-linejoin="round"/>
<g id="SVGRepo_iconCarrier"> <title>Github-color</title> <desc>Created with Sketch.</desc> <defs> </defs> <g id="Icons" stroke="none" stroke-width="1" fill="none" fill-rule="evenodd"> <g id="Color-" transform="translate(-700.000000, -560.000000)" fill="#ffffff"> <path d="M723.9985,560 C710.746,560 700,570.787092 700,584.096644 C700,594.740671 706.876,603.77183 716.4145,606.958412 C717.6145,607.179786 718.0525,606.435849 718.0525,605.797328 C718.0525,605.225068 718.0315,603.710086 718.0195,601.699648 C711.343,603.155898 709.9345,598.469394 709.9345,598.469394 C708.844,595.686405 707.2705,594.94548 707.2705,594.94548 C705.091,593.450075 707.4355,593.480194 707.4355,593.480194 C709.843,593.650366 711.1105,595.963499 711.1105,595.963499 C713.2525,599.645538 716.728,598.58234 718.096,597.964902 C718.3135,596.407754 718.9345,595.346062 719.62,594.743683 C714.2905,594.135281 708.688,592.069123 708.688,582.836167 C708.688,580.205279 709.6225,578.054788 711.1585,576.369634 C710.911,575.759726 710.0875,573.311058 711.3925,569.993458 C711.3925,569.993458 713.4085,569.345902 717.9925,572.46321 C719.908,571.928599 721.96,571.662047 724.0015,571.651505 C726.04,571.662047 728.0935,571.928599 730.0105,572.46321 C734.5915,569.345902 736.603,569.993458 736.603,569.993458 C737.9125,573.311058 737.089,575.759726 736.8415,576.369634 C738.3805,578.054788 739.309,580.205279 739.309,582.836167 C739.309,592.091712 733.6975,594.129257 728.3515,594.725612 C729.2125,595.469549 729.9805,596.939353 729.9805,599.18773 C729.9805,602.408949 729.9505,605.006706 729.9505,605.797328 C729.9505,606.441873 730.3825,607.191834 731.6005,606.9554 C741.13,603.762794 748,594.737659 748,584.096644 C748,570.787092 737.254,560 723.9985,560" id="Github"> </path> </g> </g> </g>
</svg>

<?xml version="1.0" encoding="UTF-8" standalone="no"?>
<!-- Uploaded to: SVG Repo, www.svgrepo.com, Transformed by: SVG Repo Mixer Tools -->

<svg
   width="835.45276"
   height="835.45276"
   viewBox="0 -0.5 50.127166 50.127166"
   version="1.1"
   fill="#000000"
   id="svg1"
   xmlns="http://www.w3.org/2000/svg"
   xmlns:svg="http://www.w3.org/2000/svg">
  <defs
     id="defs2" />
  <g
     id="g2"
     transform="translate(1.0635833,1.0635832)">
    <circle
       style="fill:#2580ff;fill-opacity:1;stroke-width:0.0749309"
       id="path2"
       cx="24"
       cy="23.5"
       r="25.063583" />
    <g
       id="SVGRepo_iconCarrier"
       transform="translate(0.12,-0.6)">
      <title
         id="title1">Github-color</title>
      <desc
         id="desc1">Created with Sketch.</desc>
      <defs
         id="defs1" />
      <g
         id="Icons"
         stroke="none"
         stroke-width="1"
         fill="none"
         fill-rule="evenodd">
        <g
           id="Color-"
           transform="translate(-700,-560)"
           fill="#ffffff">
          <path
             d="M 723.9985,560 C 710.746,560 700,570.78709 700,584.09664 c 0,10.64403 6.876,19.67519 16.4145,22.86177 1.2,0.22138 1.638,-0.52256 1.638,-1.16108 0,-0.57226 -0.021,-2.08724 -0.033,-4.09768 -6.6765,1.45625 -8.085,-3.23026 -8.085,-3.23026 -1.0905,-2.78298 -2.664,-3.52391 -2.664,-3.52391 -2.1795,-1.49541 0.165,-1.46529 0.165,-1.46529 2.4075,0.17018 3.675,2.48331 3.675,2.48331 2.142,3.68204 5.6175,2.61884 6.9855,2.0014 0.2175,-1.55715 0.8385,-2.61884 1.524,-3.22122 -5.3295,-0.6084 -10.932,-2.67456 -10.932,-11.90751 0,-2.63089 0.9345,-4.78138 2.4705,-6.46654 -0.2475,-0.6099 -1.071,-3.05857 0.234,-6.37617 0,0 2.016,-0.64756 6.6,2.46975 1.9155,-0.53461 3.9675,-0.80116 6.009,-0.8117 2.0385,0.0105 4.092,0.27709 6.009,0.8117 4.581,-3.11731 6.5925,-2.46975 6.5925,-2.46975 1.3095,3.3176 0.486,5.76627 0.2385,6.37617 1.539,1.68516 2.4675,3.83565 2.4675,6.46654 0,9.25554 -5.6115,11.29309 -10.9575,11.88944 0.861,0.74394 1.629,2.21374 1.629,4.46212 0,3.22122 -0.03,5.81898 -0.03,6.6096 0,0.64454 0.432,1.3945 1.65,1.15807 C 741.13,603.76279 748,594.73766 748,584.09664 748,570.78709 737.254,560 723.9985,560"
             id="Github" />
        </g>
      </g>
    </g>
  </g>
</svg>
